groups/aromatics/anthracene.svg

<?xml version='1.0' encoding='iso-8859-1'?>
<svg version='1.1' baseProfile='full'
              xmlns='http://www.w3.org/2000/svg'
                      xmlns:rdkit='http://www.rdkit.org/xml'
                      xmlns:xlink='http://www.w3.org/1999/xlink'
                  xml:space='preserve'
width='256px' height='256px' viewBox='0 0 256 256'>
<!-- END OF HEADER -->
<rect style='opacity:1.0;fill:#FFFFFF;stroke:none' width='256.0' height='256.0' x='0.0' y='0.0'> </rect>
<path class='bond-0 atom-0 atom-1' d='M 21.9,156.3 L 53.5,138.1' style='fill:none;fill-rule:evenodd;stroke:#000000;stroke-width:2.0px;stroke-linecap:butt;stroke-linejoin:miter;stroke-opacity:1' />
<path class='bond-1 atom-1 atom-2' d='M 53.5,138.1 L 53.5,101.7' style='fill:none;fill-rule:evenodd;stroke:#000000;stroke-width:2.0px;stroke-linecap:butt;stroke-linejoin:miter;stroke-opacity:1' />
<path class='bond-1 atom-1 atom-2' d='M 58.9,135.0 L 59.0,104.9' style='fill:none;fill-rule:evenodd;stroke:#000000;stroke-width:2.0px;stroke-linecap:butt;stroke-linejoin:miter;stroke-opacity:1' />
<path class='bond-2 atom-2 atom-3' d='M 53.5,101.7 L 85.1,83.5' style='fill:none;fill-rule:evenodd;stroke:#000000;stroke-width:2.0px;stroke-linecap:butt;stroke-linejoin:miter;stroke-opacity:1' />
<path class='bond-3 atom-3 atom-4' d='M 85.1,83.5 L 116.6,101.7' style='fill:none;fill-rule:evenodd;stroke:#000000;stroke-width:2.0px;stroke-linecap:butt;stroke-linejoin:miter;stroke-opacity:1' />
<path class='bond-3 atom-3 atom-4' d='M 85.1,89.8 L 111.1,104.9' style='fill:none;fill-rule:evenodd;stroke:#000000;stroke-width:2.0px;stroke-linecap:butt;stroke-linejoin:miter;stroke-opacity:1' />
<path class='bond-4 atom-4 atom-5' d='M 116.6,101.7 L 148.2,83.6' style='fill:none;fill-rule:evenodd;stroke:#000000;stroke-width:2.0px;stroke-linecap:butt;stroke-linejoin:miter;stroke-opacity:1' />
<path class='bond-5 atom-5 atom-6' d='M 148.2,83.6 L 179.7,101.8' style='fill:none;fill-rule:evenodd;stroke:#000000;stroke-width:2.0px;stroke-linecap:butt;stroke-linejoin:miter;stroke-opacity:1' />
<path class='bond-5 atom-5 atom-6' d='M 148.2,89.9 L 174.2,104.9' style='fill:none;fill-rule:evenodd;stroke:#000000;stroke-width:2.0px;stroke-linecap:butt;stroke-linejoin:miter;stroke-opacity:1' />
<path class='bond-6 atom-6 atom-7' d='M 179.7,101.8 L 211.3,83.6' style='fill:none;fill-rule:evenodd;stroke:#000000;stroke-width:2.0px;stroke-linecap:butt;stroke-linejoin:miter;stroke-opacity:1' />
<path class='bond-7 atom-7 atom-8' d='M 211.3,83.6 L 242.8,101.8' style='fill:none;fill-rule:evenodd;stroke:#000000;stroke-width:2.0px;stroke-linecap:butt;stroke-linejoin:miter;stroke-opacity:1' />
<path class='bond-7 atom-7 atom-8' d='M 211.3,89.9 L 237.3,105.0' style='fill:none;fill-rule:evenodd;stroke:#000000;stroke-width:2.0px;stroke-linecap:butt;stroke-linejoin:miter;stroke-opacity:1' />
<path class='bond-8 atom-8 atom-9' d='M 242.8,101.8 L 242.8,138.3' style='fill:none;fill-rule:evenodd;stroke:#000000;stroke-width:2.0px;stroke-linecap:butt;stroke-linejoin:miter;stroke-opacity:1' />
<path class='bond-9 atom-9 atom-10' d='M 242.8,138.3 L 211.2,156.5' style='fill:none;fill-rule:evenodd;stroke:#000000;stroke-width:2.0px;stroke-linecap:butt;stroke-linejoin:miter;stroke-opacity:1' />
<path class='bond-9 atom-9 atom-10' d='M 237.3,135.1 L 211.2,150.2' style='fill:none;fill-rule:evenodd;stroke:#000000;stroke-width:2.0px;stroke-linecap:butt;stroke-linejoin:miter;stroke-opacity:1' />
<path class='bond-10 atom-10 atom-11' d='M 211.2,156.5 L 179.7,138.2' style='fill:none;fill-rule:evenodd;stroke:#000000;stroke-width:2.0px;stroke-linecap:butt;stroke-linejoin:miter;stroke-opacity:1' />
<path class='bond-11 atom-11 atom-12' d='M 179.7,138.2 L 148.1,156.4' style='fill:none;fill-rule:evenodd;stroke:#000000;stroke-width:2.0px;stroke-linecap:butt;stroke-linejoin:miter;stroke-opacity:1' />
<path class='bond-11 atom-11 atom-12' d='M 174.2,135.1 L 148.1,150.1' style='fill:none;fill-rule:evenodd;stroke:#000000;stroke-width:2.0px;stroke-linecap:butt;stroke-linejoin:miter;stroke-opacity:1' />
<path class='bond-12 atom-12 atom-13' d='M 148.1,156.4 L 116.6,138.2' style='fill:none;fill-rule:evenodd;stroke:#000000;stroke-width:2.0px;stroke-linecap:butt;stroke-linejoin:miter;stroke-opacity:1' />
<path class='bond-13 atom-13 atom-14' d='M 116.6,138.2 L 85.0,156.4' style='fill:none;fill-rule:evenodd;stroke:#000000;stroke-width:2.0px;stroke-linecap:butt;stroke-linejoin:miter;stroke-opacity:1' />
<path class='bond-13 atom-13 atom-14' d='M 111.1,135.0 L 85.0,150.1' style='fill:none;fill-rule:evenodd;stroke:#000000;stroke-width:2.0px;stroke-linecap:butt;stroke-linejoin:miter;stroke-opacity:1' />
<path class='bond-14 atom-14 atom-1' d='M 85.0,156.4 L 53.5,138.1' style='fill:none;fill-rule:evenodd;stroke:#000000;stroke-width:2.0px;stroke-linecap:butt;stroke-linejoin:miter;stroke-opacity:1' />
<path class='bond-15 atom-13 atom-4' d='M 116.6,138.2 L 116.6,101.7' style='fill:none;fill-rule:evenodd;stroke:#000000;stroke-width:2.0px;stroke-linecap:butt;stroke-linejoin:miter;stroke-opacity:1' />
<path class='bond-16 atom-11 atom-6' d='M 179.7,138.2 L 179.7,101.8' style='fill:none;fill-rule:evenodd;stroke:#000000;stroke-width:2.0px;stroke-linecap:butt;stroke-linejoin:miter;stroke-opacity:1' />
<path d='M 53.5,103.5 L 53.5,101.7 L 55.1,100.8' style='fill:none;stroke:#000000;stroke-width:2.0px;stroke-linecap:butt;stroke-linejoin:miter;stroke-miterlimit:10;stroke-opacity:1;' />
<path d='M 83.5,84.4 L 85.1,83.5 L 86.6,84.4' style='fill:none;stroke:#000000;stroke-width:2.0px;stroke-linecap:butt;stroke-linejoin:miter;stroke-miterlimit:10;stroke-opacity:1;' />
<path d='M 146.6,84.5 L 148.2,83.6 L 149.7,84.5' style='fill:none;stroke:#000000;stroke-width:2.0px;stroke-linecap:butt;stroke-linejoin:miter;stroke-miterlimit:10;stroke-opacity:1;' />
<path d='M 209.7,84.5 L 211.3,83.6 L 212.8,84.5' style='fill:none;stroke:#000000;stroke-width:2.0px;stroke-linecap:butt;stroke-linejoin:miter;stroke-miterlimit:10;stroke-opacity:1;' />
<path d='M 241.2,100.9 L 242.8,101.8 L 242.8,103.7' style='fill:none;stroke:#000000;stroke-width:2.0px;stroke-linecap:butt;stroke-linejoin:miter;stroke-miterlimit:10;stroke-opacity:1;' />
<path d='M 242.8,136.5 L 242.8,138.3 L 241.2,139.2' style='fill:none;stroke:#000000;stroke-width:2.0px;stroke-linecap:butt;stroke-linejoin:miter;stroke-miterlimit:10;stroke-opacity:1;' />
<path d='M 212.8,155.6 L 211.2,156.5 L 209.6,155.6' style='fill:none;stroke:#000000;stroke-width:2.0px;stroke-linecap:butt;stroke-linejoin:miter;stroke-miterlimit:10;stroke-opacity:1;' />
<path d='M 149.7,155.5 L 148.1,156.4 L 146.5,155.5' style='fill:none;stroke:#000000;stroke-width:2.0px;stroke-linecap:butt;stroke-linejoin:miter;stroke-miterlimit:10;stroke-opacity:1;' />
<path d='M 86.6,155.5 L 85.0,156.4 L 83.4,155.5' style='fill:none;stroke:#000000;stroke-width:2.0px;stroke-linecap:butt;stroke-linejoin:miter;stroke-miterlimit:10;stroke-opacity:1;' />
<path class='atom-1' d='M30.9891,172.1 C32.1729,171.418 31.2635,169.84 30.0797,170.522 C28.8959,171.204 27.9864,169.626 29.1702,168.944 C30.354,168.262 29.4446,166.683 28.2608,167.365 C27.077,168.047 26.1675,166.469 27.3513,165.787 C28.5351,165.105 27.6256,163.526 26.4418,164.208 C25.258,164.89 24.3486,163.312 25.5324,162.63 C26.7162,161.948 25.8067,160.369 24.6229,161.051 C23.4391,161.734 22.5297,160.155 23.7135,159.473 C24.8973,158.791 23.9878,157.212 22.804,157.895 C21.6202,158.577 20.7108,156.998 21.8946,156.316 C23.0784,155.634 22.1689,154.056 20.9851,154.738 C19.8013,155.42 18.8918,153.841 20.0756,153.159 C21.2594,152.477 20.35,150.899 19.1662,151.581 C17.9824,152.263 17.0729,150.684 18.2567,150.002 C19.4405,149.32 18.5311,147.742 17.3473,148.424 C16.1635,149.106 15.254,147.528 16.4378,146.846 C17.6216,146.163 16.7122,144.585 15.5284,145.267 C14.3446,145.949 13.4351,144.371 14.6189,143.689 C15.8027,143.007 14.8933,141.428 13.7095,142.11 C12.5257,142.792 11.6162,141.214 12.8,140.532' style='fill:none;stroke:#7F7F7F;stroke-width:2.0px;stroke-linecap:butt;stroke-linejoin:miter;stroke-opacity:1' />
</svg>

<svg height="256" viewBox="0 0 256 256" width="256" xmlns="http://www.w3.org/2000/svg"><path d="m0 0h256v256h-256z" fill="#fff"/><g fill="none" stroke-width="2"><path d="m21.9 156.3 31.6-18.2" stroke="#000"/><path d="m53.5 138.1v-36.4" stroke="#000"/><path d="m58.9 135 .1-30.1" stroke="#000"/><path d="m53.5 101.7 31.6-18.2" stroke="#000"/><path d="m85.1 83.5 31.5 18.2" stroke="#000"/><path d="m85.1 89.8 26 15.1" stroke="#000"/><path d="m116.6 101.7 31.6-18.1" stroke="#000"/><path d="m148.2 83.6 31.5 18.2" stroke="#000"/><path d="m148.2 89.9 26 15" stroke="#000"/><path d="m179.7 101.8 31.6-18.2" stroke="#000"/><path d="m211.3 83.6 31.5 18.2" stroke="#000"/><path d="m211.3 89.9 26 15.1" stroke="#000"/><path d="m242.8 101.8v36.5" stroke="#000"/><path d="m242.8 138.3-31.6 18.2" stroke="#000"/><path d="m237.3 135.1-26.1 15.1" stroke="#000"/><path d="m211.2 156.5-31.5-18.3" stroke="#000"/><path d="m179.7 138.2-31.6 18.2" stroke="#000"/><path d="m174.2 135.1-26.1 15" stroke="#000"/><path d="m148.1 156.4-31.5-18.2" stroke="#000"/><path d="m116.6 138.2-31.6 18.2" stroke="#000"/><path d="m111.1 135-26.1 15.1" stroke="#000"/><path d="m85 156.4-31.5-18.3" stroke="#000"/><path d="m116.6 138.2v-36.5" stroke="#000"/><path d="m179.7 138.2v-36.4" stroke="#000"/><path d="m53.5 103.5v-1.8l1.6-.9" stroke="#000" stroke-miterlimit="10"/><path d="m83.5 84.4 1.6-.9 1.5.9" stroke="#000" stroke-miterlimit="10"/><path d="m146.6 84.5 1.6-.9 1.5.9" stroke="#000" stroke-miterlimit="10"/><path d="m209.7 84.5 1.6-.9 1.5.9" stroke="#000" stroke-miterlimit="10"/><path d="m241.2 100.9 1.6.9v1.9" stroke="#000" stroke-miterlimit="10"/><path d="m242.8 136.5v1.8l-1.6.9" stroke="#000" stroke-miterlimit="10"/><path d="m212.8 155.6-1.6.9-1.6-.9" stroke="#000" stroke-miterlimit="10"/><path d="m149.7 155.5-1.6.9-1.6-.9" stroke="#000" stroke-miterlimit="10"/><path d="m86.6 155.5-1.6.9-1.6-.9" stroke="#000" stroke-miterlimit="10"/><path d="m30.989 172.1c1.184-.682.275-2.26-.909-1.578s-2.094-.896-.91-1.578.275-2.261-.909-1.579-2.093-.896-.91-1.578c1.184-.682.275-2.261-.909-1.579s-2.093-.896-.91-1.578c1.184-.682.275-2.261-.909-1.579-1.184.683-2.093-.896-.909-1.578 1.183-.682.274-2.261-.91-1.578-1.184.682-2.093-.897-.909-1.579 1.183-.682.274-2.26-.91-1.578s-2.093-.897-.909-1.579c1.183-.682.274-2.26-.91-1.578s-2.093-.897-.909-1.579.274-2.26-.91-1.578c-1.183.682-2.093-.896-.909-1.578 1.184-.683.274-2.261-.91-1.579-1.183.682-2.093-.896-.909-1.578s.274-2.261-.909-1.579c-1.184.682-2.094-.896-.91-1.578" stroke="#7f7f7f"/></g></svg>
